packages/ui-solid/icons/lock_24.svg

<svg width="24" height="24" viewBox="0 0 24 24" fill="none" xmlns="http://www.w3.org/2000/svg">
<path fill-rule="evenodd" clip-rule="evenodd" d="M11.77 3.36458C9.80755 3.36458 8.21665 4.95547 8.21665 6.91794V8.42464H15.3234V6.91794C15.3234 4.95547 13.7325 3.36458 11.77 3.36458ZM17.1234 8.42893V6.91794C17.1234 3.96136 14.7266 1.56458 11.77 1.56458C8.81344 1.56458 6.41665 3.96136 6.41665 6.91794V8.43615C6.1046 8.45218 5.82258 8.48978 5.5644 8.57724C4.71324 8.86557 4.04494 9.53388 3.7566 10.385C3.60259 10.8397 3.60319 11.3682 3.6039 12.0045C3.60395 12.0483 3.604 12.0925 3.604 12.1373L3.604 18.0723C3.60398 18.5985 3.60397 19.0468 3.63405 19.415C3.66567 19.8019 3.73493 20.1789 3.91861 20.5393C4.19535 21.0825 4.63693 21.5241 5.18007 21.8008C5.54056 21.9845 5.91749 22.0537 6.3044 22.0854C6.67259 22.1154 7.12094 22.1154 7.64707 22.1154H16.3617C16.8879 22.1154 17.3362 22.1154 17.7044 22.0854C18.0913 22.0537 18.4683 21.9845 18.8287 21.8008C19.3719 21.5241 19.8135 21.0825 20.0902 20.5393C20.2739 20.1789 20.3431 19.8019 20.3748 19.415C20.4048 19.0468 20.4048 18.5985 20.4048 18.0723V12.4677C20.4048 11.9416 20.4048 11.4932 20.3748 11.125C20.3431 10.7381 20.2739 10.3612 20.0902 10.0007C19.8135 9.45757 19.3719 9.01599 18.8287 8.73925C18.4683 8.55557 18.0913 8.4863 17.7044 8.45469C17.5289 8.44035 17.3351 8.43285 17.1234 8.42893ZM7.31665 10.2246C6.4747 10.2246 6.27608 10.2366 6.14192 10.2821C5.82153 10.3906 5.56997 10.6422 5.46144 10.9626C5.41599 11.0967 5.404 11.2953 5.404 12.1373V18.037C5.404 18.6081 5.4047 18.9823 5.42808 19.2684C5.45059 19.544 5.48958 19.6577 5.52242 19.7222C5.62659 19.9266 5.79281 20.0928 5.99725 20.197C6.0617 20.2298 6.17538 20.2688 6.45098 20.2913C6.73709 20.3147 7.11131 20.3154 7.68244 20.3154H16.3264C16.8975 20.3154 17.2717 20.3147 17.5578 20.2913C17.8334 20.2688 17.9471 20.2298 18.0116 20.197C18.216 20.0928 18.3822 19.9266 18.4864 19.7222C18.5192 19.6577 18.5582 19.544 18.5807 19.2684C18.6041 18.9823 18.6048 18.6081 18.6048 18.037V12.5031C18.6048 11.9319 18.6041 11.5577 18.5807 11.2716C18.5582 10.996 18.5192 10.8823 18.4864 10.8179C18.3822 10.6134 18.216 10.4472 18.0116 10.3431C17.9471 10.3102 17.8334 10.2712 17.5578 10.2487C17.2717 10.2253 16.8975 10.2246 16.3264 10.2246H7.31665Z" fill="#007AFF"/>
<ellipse cx="12.0044" cy="15.2945" rx="1.50052" ry="1.48099" fill="#007AFF"/>
</svg>

<svg xmlns="http://www.w3.org/2000/svg" width="24" height="24" fill="none"><path fill="currentColor" fill-rule="evenodd" d="M11.77 3.365a3.553 3.553 0 0 0-3.553 3.553v1.507h7.106V6.918a3.553 3.553 0 0 0-3.553-3.553m5.353 5.064V6.918a5.353 5.353 0 0 0-10.706 0v1.518a3.2 3.2 0 0 0-.853.141 2.89 2.89 0 0 0-1.807 1.808c-.154.455-.154.983-.153 1.62v6.067c0 .527 0 .975.03 1.343.032.387.1.764.285 1.124.276.543.718.985 1.261 1.262.36.184.737.253 1.124.284.369.03.817.03 1.343.03h8.715c.526 0 .974 0 1.342-.03.387-.031.764-.1 1.125-.284a2.9 2.9 0 0 0 1.261-1.262c.184-.36.253-.737.285-1.124.03-.368.03-.816.03-1.343v-5.604c0-.526 0-.975-.03-1.343-.032-.387-.101-.764-.285-1.124a2.9 2.9 0 0 0-1.261-1.262c-.36-.183-.738-.253-1.125-.284a9 9 0 0 0-.58-.026m-9.806 1.796c-.842 0-1.04.012-1.175.057-.32.109-.572.36-.68.68-.046.135-.058.333-.058 1.175v5.9c0 .571 0 .945.024 1.231.023.276.062.39.094.454.105.205.27.37.475.475.065.033.178.072.454.094.286.024.66.024 1.231.024h8.644c.572 0 .946 0 1.232-.024.275-.022.39-.061.454-.094.204-.104.37-.27.474-.475.033-.064.072-.178.095-.454.023-.286.024-.66.024-1.231v-5.534c0-.571 0-.945-.024-1.231-.023-.276-.062-.39-.095-.454a1.1 1.1 0 0 0-.474-.475c-.065-.033-.179-.072-.454-.094-.286-.024-.66-.024-1.232-.024z" clip-rule="evenodd"/><ellipse cx="12.004" cy="15.294" fill="currentColor" rx="1.501" ry="1.481"/></svg>
